X:2
T:Polka  GC 5- (pk07663)  
S:Hanny Christen. Bd.V  Basel II, Jura. S.29  (pk07663) orig. C,F
S:Basel II. TÃ¤nze aus Augst. S.6-42.
S:Ãœberliefert durch Erwin Baumgartner (*1878) und Hans Tschudin (*1886)
%%MIDI program 21
R:Polka
M:2/4
L:1/8
K:G %%MIDI gchordon
"G"G/2F/2G/2A/2 BG | d3g | "D7"fg/2f/2 ef/2e/2 | "G"d3d | "C"ce e/2^d/2e | "G"Bd d/2^c/2d | "D7"fe/2d/2 cB/2A/2 |1 "G"GG Gz :|2 
"G"GG GG/2G/2 |: [K:C] "C"ed "F"cA | "C"G3G/2G/2 | ed "F"cA | "G7"B3d/2e/2 | ff fe | d2 d/2e/2f/2g/2 |1 "D7"AA B>A | "G7"AG/2^F/2 GG/2G/2 :|2 
aB e>d | "C"cc cz || [K:G] "G"B/2c/2d/2e/2 dB | "Am"c/2d/2e/2f/2 e2 | "D7"f/2e/2f/2e/2 cc | "G"e/2d/2e/2d/2B2 | B/2c/2d/2e/2 dB | "Am"c/2d/2e/2f/2 e2 | 
"D7"f/2e/2f/2e/2 d/2c/2B/2A/2 | "G"GB Gz |: [K:C] !>!"C"e2 ec/2A/2 | !>!G2 GA/2B/2 | dc G>c | "F"BAA2 | !>!f2 fe/2d/2 | A2 Ac/2d/2 | "G7"Bd g>f | 
"C"fe/2d/2e2 | !>!e2 ec/2A/2 | !>!G2 GA/2B/2 | dc G>c | "F"BAA2 | d/2e/2f/2g/2 a>^f | "C"g>e cA | Gc "G7"B>B | "C"cc cz :| 
%W:Anmerkung H.C.: in Mumpf gespielt
% pk07663
% Dec 8, 2017 (Sr Marija)

